X:1
T:Miss Fyffe's Strathspey
T:Miss Fyffe's Strathspey
T:William Marshall
C:William Marshall
%%score { 1 | ( 2 3 ) }
L:1/8
M:2/2
K:Eb
V:1 treble nm="SLOW\nwhen not\nDANCED"
V:2 bass 
V:3 bass 
V:1
 e | TB>A G<E B,<EG,<E | D<F-F>G{G} A2 (Ac) | B>A G<E B,<EG,<E | G<e-e>G{G} B2 B :| c/d/ | %6
 (e/d/c/B/) (Ge) B<eGE | D<F-F>!wedge!G{G} A2 A c/d/ | .e.B.g.e .f.d.e.E | G<B{d}e>G{G} B2 B c/d/ | %10
 (e/d/c/B/) (.G.E) .e.E.G.E | D<F-F>!wedge!G{G} A2 (Ac) | (B/e/)g/f/ (e/d/)c/B/{d} e>B c<e | %13
 B>G E/F/G/A/ B2 B |] %14
V:2
 z | [E,,E,]2 [E,,E,]2 [E,,E,]2 [E,,E,]2 | [B,,B,]2 A,G, [B,,F,]2 [D,,D,]2 | %3
 [E,,E,]2 [E,,E,]2 [E,,E,]2 [E,,E,]2 | [E,,E,]2 [E,,E,]2 [E,,E,]2 [E,,E,] :| [E,A,] | %6
 [E,G,B,]2 [E,G,B,]2 [E,G,B,]2 [E,G,B,]2 | [B,,B,]2 A,>G, [B,,F,]2 [B,,F,]A, | %8
 [E,G,B,]2 [E,G,B,]2 [E,A,B,]2 [E,G,B,]2 | [E,G,B,]2 [E,G,B,]2 [E,G,B,]2 [E,G,B,][E,A,B,] | %10
 [E,G,]2 [E,,E,]2 [E,,E,]2 [E,,E,]2 | [B,,B,]2 [A,,A,][G,,G,] [F,,F,]2 [D,,D,]2 | %12
 [E,,E,]2 [E,,E,]2 [G,,G,]2 [A,,A,]2 | [G,,G,]2 [E,,E,]2 [E,,E,]2 [E,,E,] |] %14
V:3
 x | x8 | x2 B,,2 x4 | x8 | x7 :| x | x8 | x2 B,,2 x4 | x8 | x8 | x8 | x8 | x8 | x7 |] %14

